svgs/sharp-solid/waffle.svg

<svg xmlns="http://www.w3.org/2000/svg" viewBox="0 0 512 512"><!--! Font Awesome Pro 6.6.0 by @fontawesome - https://fontawesome.com License - https://fontawesome.com/license (Commercial License) Copyright 2024 Fonticons, Inc. --><path d="M0 256a256 256 0 1 1 512 0A256 256 0 1 1 0 256zM176 80l-32 0 0 16 0 48-48 0-16 0 0 32 16 0 48 0 0 64-80 0-16 0 0 32 16 0 80 0 0 64-48 0-16 0 0 32 16 0 48 0 0 48 0 16 32 0 0-16 0-48 64 0 0 80 0 16 32 0 0-16 0-80 64 0 0 48 0 16 32 0 0-16 0-48 48 0 16 0 0-32-16 0-48 0 0-64 80 0 16 0 0-32-16 0-80 0 0-64 48 0 16 0 0-32-16 0-48 0 0-48 0-16-32 0 0 16 0 48-64 0 0-80 0-16-32 0 0 16 0 80-64 0 0-48 0-16zm0 256l0-64 64 0 0 64-64 0zm96 0l0-64 64 0 0 64-64 0zm64-160l0 64-64 0 0-64 64 0zm-96 0l0 64-64 0 0-64 64 0z"/></svg>

<svg xmlns="http://www.w3.org/2000/svg" viewBox="0 0 512 512"><!--! Font Awesome Pro 6.4.2 by @fontawesome - https://fontawesome.com License - https://fontawesome.com/license (Commercial License) Copyright 2023 Fonticons, Inc. --><path d="M0 256a256 256 0 1 1 512 0A256 256 0 1 1 0 256zM176 80H144V96v48H96 80v32H96h48v64H64 48v32H64h80v64H96 80v32H96h48v48 16h32V416 368h64v80 16h32V448 368h64v48 16h32V416 368h48 16V336H416 368V272h80 16V240H448 368V176h48 16V144H416 368V96 80H336V96v48H272V64 48H240V64v80H176V96 80zm0 256V272h64v64H176zm96 0V272h64v64H272zm64-160v64H272V176h64zm-96 0v64H176V176h64z"/></svg>
